X:108
T:Makin Whoopee
C:
N:TablEdited by Alan Howard
L:1/8
Q:1/4=120
M:4/4
K:C
D/ED/ | |: [B3/2D3/2G,3/2][B2^D2G,2][B2E2G,2]=D/ E3/2D/ | [c3/2E3/2A,3/2][c2F2A,2][c2^F2A,2]D/ E3/2D/ | 
[d3/2G3/2B,3/2][d2G2B,2][d2F2B,2]G/ A3/2G/ | [d3/2E3/2G,3/2][d2E2G,2][d2_E2G,2]c/ d3/2c/ | 
[B3/2D3/2G,3/2][B2^F2G,2][B2E2G,2]D/ E3/2D/ | [_B3/2G3/2^C3/2][B2G2C2][B2^F2=C2]G/ A3/2B/ | 
[B2D2G,2] G2 [E2G,2] D2 |1 [A3/2^F3/2C3/2]B2[c2F2A,2]D/ E3/2D/ :|2 [A2^F2C2] B2 [c2F2C2] [^c2G2^C2] |] 
[d^GD]f2d [f2G2D2] d2 | [c2E2A,2] [c6E6A,6] | [c^DG,]^d2c [d2D2G,2] c2 | [B8D8G,8] | 
[d^GD]f2d [f2G2D2] d2 | [c2E2A,2] [c6E6A,6] | [c^DG,]^d2c [d2D2G,2] c2 | [B4D4G,4] [A3/2^F3/2C3/2]D/ E3/2D/ | 
[B3/2D3/2G,3/2][B2^D2G,2][B2E2G,2]=D/ E3/2D/ | [c3/2E3/2A,3/2][c2F2A,2][c2^F2A,2]D/ E3/2D/ | 
[d3/2G3/2B,3/2][d2G2B,2][d2F2B,2]G/ A3/2G/ | [d3/2E3/2G,3/2][d2E2G,2][d2^D2G,2]c/ d3/2c/ | 
[B3/2D3/2G,3/2][B2^F2G,2][B2E2G,2]D/ E3/2D/ | [_B3/2G3/2^C3/2][B2G2C2][B2^F2=C2]G/ A3/2B/ | 
[B2D2G,2] G2 [E2G,2] ^D2 | [D3/2G,3/2]E/ ^F[G4G,4]z | 


